img/icon.svg

<?xml version="1.0" encoding="utf-8"?>
<!-- Generator: Adobe Illustrator 24.3.0, SVG Export Plug-In . SVG Version: 6.00 Build 0)  -->
<svg version="1.1"
	 id="svg14" inkscape:version="1.0 (4035a4fb49, 2020-05-01)" sodipodi:docname="icon-dark.svg" xmlns:cc="http://creativecommons.org/ns#" xmlns:dc="http://purl.org/dc/elements/1.1/" xmlns:inkscape="http://www.inkscape.org/namespaces/inkscape" xmlns:rdf="http://www.w3.org/1999/02/22-rdf-syntax-ns#" xmlns:sodipodi="http://sodipodi.sourceforge.net/DTD/sodipodi-0.dtd" xmlns:svg="http://www.w3.org/2000/svg"
	 xmlns="http://www.w3.org/2000/svg" xmlns:xlink="http://www.w3.org/1999/xlink" x="0px" y="0px" viewBox="0 0 36 36"
	 style="enable-background:new 0 0 36 36;" xml:space="preserve">
<style type="text/css">
	.st0{enable-background:new    ;}
	.st1{fill:#0080FF;}
</style>
<g class="st0">
	<path class="st1" d="M30.4,8.5c0-2.4-1.1-3.6-3.4-3.6c-1,0-1.8,0.3-2.5,0.9c-0.7,0.6-1.3,1.4-1.6,2.3c-0.4,0.9-0.8,2.1-1.1,3.4
		s-0.7,2.6-1,4c-0.7,3.2-1.7,5.9-3.1,8.1c0.4,0.2,1,0.5,1.8,0.9c0.8,0.4,1.5,0.7,2,0.9c1.4,0.6,2.6,0.9,3.7,0.9
		c0.5,0,0.9-0.1,1.3-0.3c0.4-0.2,0.7-0.5,0.9-0.8c0.2-0.3,0.4-0.5,0.6-0.8s0.3-0.3,0.3-0.3l0.7,0.4c-1,1.8-2,3-3.1,3.4
		c-0.5,0.2-1.1,0.3-1.9,0.3s-1.6-0.1-2.5-0.4c-0.9-0.3-1.9-0.7-3.1-1.2s-1.9-0.8-2.4-1c-0.9,0.8-2,1.4-3.4,1.9
		c-1.4,0.5-3,0.7-4.7,0.7c-0.9,0-1.7-0.2-2.4-0.5c-1.4-0.6-2.1-1.5-2.1-2.4s0.3-1.8,0.9-2.5c1.2-1.3,2.8-1.9,4.8-1.9
		c1.5,0,3,0.3,4.7,0.9c0.6,0.2,1.4,0.6,2.3,1c0.5-1.3,0.9-2.8,1.2-4.5s0.6-3.1,0.9-4.3c0.3-1.1,0.6-2.2,0.9-3.1
		c0.3-0.9,0.7-1.9,1.2-2.8s1-1.7,1.6-2.3c1.3-1.4,3-2.1,5.1-2.1c1.6,0,2.9,0.5,3.9,1.4s1.5,2.2,1.5,3.9c0,1.3-0.3,2.5-0.8,3.6
		c-0.5,1.2-1.2,2.2-2,3.1S28.1,17.4,27,18s-2.2,1-3.4,1.2l-0.2-0.9c1.3-0.3,2.6-1,3.7-2c1.1-1,1.9-2.2,2.5-3.6
		C30.1,11.3,30.4,9.9,30.4,8.5z M4.4,25.1c0,0.9,0.5,1.5,1.6,1.8c2.2,0.6,4.5,0.4,6.7-0.6c0.8-0.4,1.5-0.9,1.9-1.4
		c-2.2-1.5-4.2-2.2-6-2.2C5.9,22.5,4.4,23.4,4.4,25.1z"/>
</g>
</svg>

<?xml version="1.0" encoding="UTF-8" standalone="no"?>
<!DOCTYPE svg PUBLIC "-//W3C//DTD SVG 1.1//EN" "http://www.w3.org/Graphics/SVG/1.1/DTD/svg11.dtd">
<svg width="100%" height="100%" viewBox="0 0 36 36" version="1.1" xmlns="http://www.w3.org/2000/svg" xmlns:xlink="http://www.w3.org/1999/xlink" xml:space="preserve" xmlns:serif="http://www.serif.com/" style="fill-rule:evenodd;clip-rule:evenodd;">
    <g id="g6">
        <path id="path4" d="M30.4,8.5C30.4,6.1 29.3,4.9 27,4.9C26,4.9 25.2,5.2 24.5,5.8C23.8,6.4 23.2,7.2 22.9,8.1C22.5,9 22.1,10.2 21.8,11.5C21.5,12.8 21.1,14.1 20.8,15.5C20.1,18.7 19.1,21.4 17.7,23.6C18.1,23.8 18.7,24.1 19.5,24.5C20.3,24.9 21,25.2 21.5,25.4C22.9,26 24.1,26.3 25.2,26.3C25.7,26.3 26.1,26.2 26.5,26C26.9,25.8 27.2,25.5 27.4,25.2C27.6,24.9 27.8,24.7 28,24.4C28.2,24.1 28.3,24.1 28.3,24.1L29,24.5C28,26.3 27,27.5 25.9,27.9C25.4,28.1 24.8,28.2 24,28.2C23.2,28.2 22.4,28.1 21.5,27.8C20.6,27.5 19.6,27.1 18.4,26.6C17.2,26.1 16.5,25.8 16,25.6C15.1,26.4 14,27 12.6,27.5C11.2,28 9.6,28.2 7.9,28.2C7,28.2 6.2,28 5.5,27.7C4.1,27.1 3.4,26.2 3.4,25.3C3.4,24.4 3.7,23.5 4.3,22.8C5.5,21.5 7.1,20.9 9.1,20.9C10.6,20.9 12.1,21.2 13.8,21.8C14.4,22 15.2,22.4 16.1,22.8C16.6,21.5 17,20 17.3,18.3C17.6,16.6 17.9,15.2 18.2,14C18.5,12.9 18.8,11.8 19.1,10.9C19.4,10 19.8,9 20.3,8.1C20.8,7.2 21.3,6.4 21.9,5.8C23.2,4.4 24.9,3.7 27,3.7C28.6,3.7 29.9,4.2 30.9,5.1C31.9,6 32.4,7.3 32.4,9C32.4,10.3 32.1,11.5 31.6,12.6C31.1,13.8 30.4,14.8 29.6,15.7C28.8,16.6 28.1,17.4 27,18C25.9,18.6 24.8,19 23.6,19.2L23.4,18.3C24.7,18 26,17.3 27.1,16.3C28.2,15.3 29,14.1 29.6,12.7C30.1,11.3 30.4,9.9 30.4,8.5ZM4.4,25.1C4.4,26 4.9,26.6 6,26.9C8.2,27.5 10.5,27.3 12.7,26.3C13.5,25.9 14.2,25.4 14.6,24.9C12.4,23.4 10.4,22.7 8.6,22.7C5.9,22.5 4.4,23.4 4.4,25.1Z" style="fill:none;fill-rule:nonzero;stroke:white;stroke-width:4px;"/>
        <path id="path41" serif:id="path4" d="M30.4,8.5C30.4,6.1 29.3,4.9 27,4.9C26,4.9 25.2,5.2 24.5,5.8C23.8,6.4 23.2,7.2 22.9,8.1C22.5,9 22.1,10.2 21.8,11.5C21.5,12.8 21.1,14.1 20.8,15.5C20.1,18.7 19.1,21.4 17.7,23.6C18.1,23.8 18.7,24.1 19.5,24.5C20.3,24.9 21,25.2 21.5,25.4C22.9,26 24.1,26.3 25.2,26.3C25.7,26.3 26.1,26.2 26.5,26C26.9,25.8 27.2,25.5 27.4,25.2C27.6,24.9 27.8,24.7 28,24.4C28.2,24.1 28.3,24.1 28.3,24.1L29,24.5C28,26.3 27,27.5 25.9,27.9C25.4,28.1 24.8,28.2 24,28.2C23.2,28.2 22.4,28.1 21.5,27.8C20.6,27.5 19.6,27.1 18.4,26.6C17.2,26.1 16.5,25.8 16,25.6C15.1,26.4 14,27 12.6,27.5C11.2,28 9.6,28.2 7.9,28.2C7,28.2 6.2,28 5.5,27.7C4.1,27.1 3.4,26.2 3.4,25.3C3.4,24.4 3.7,23.5 4.3,22.8C5.5,21.5 7.1,20.9 9.1,20.9C10.6,20.9 12.1,21.2 13.8,21.8C14.4,22 15.2,22.4 16.1,22.8C16.6,21.5 17,20 17.3,18.3C17.6,16.6 17.9,15.2 18.2,14C18.5,12.9 18.8,11.8 19.1,10.9C19.4,10 19.8,9 20.3,8.1C20.8,7.2 21.3,6.4 21.9,5.8C23.2,4.4 24.9,3.7 27,3.7C28.6,3.7 29.9,4.2 30.9,5.1C31.9,6 32.4,7.3 32.4,9C32.4,10.3 32.1,11.5 31.6,12.6C31.1,13.8 30.4,14.8 29.6,15.7C28.8,16.6 28.1,17.4 27,18C25.9,18.6 24.8,19 23.6,19.2L23.4,18.3C24.7,18 26,17.3 27.1,16.3C28.2,15.3 29,14.1 29.6,12.7C30.1,11.3 30.4,9.9 30.4,8.5ZM4.4,25.1C4.4,26 4.9,26.6 6,26.9C8.2,27.5 10.5,27.3 12.7,26.3C13.5,25.9 14.2,25.4 14.6,24.9C12.4,23.4 10.4,22.7 8.6,22.7C5.9,22.5 4.4,23.4 4.4,25.1Z" style="fill:rgb(0,128,255);fill-rule:nonzero;"/>
        <path id="path42" serif:id="path4" d="M30.4,8.5C30.4,6.1 29.3,4.9 27,4.9C26,4.9 25.2,5.2 24.5,5.8C23.8,6.4 23.2,7.2 22.9,8.1C22.5,9 22.1,10.2 21.8,11.5C21.5,12.8 21.1,14.1 20.8,15.5C20.1,18.7 19.1,21.4 17.7,23.6C18.1,23.8 18.7,24.1 19.5,24.5C20.3,24.9 21,25.2 21.5,25.4C22.9,26 24.1,26.3 25.2,26.3C25.7,26.3 26.1,26.2 26.5,26C26.9,25.8 27.2,25.5 27.4,25.2C27.6,24.9 27.8,24.7 28,24.4C28.2,24.1 28.3,24.1 28.3,24.1L29,24.5C28,26.3 27,27.5 25.9,27.9C25.4,28.1 24.8,28.2 24,28.2C23.2,28.2 22.4,28.1 21.5,27.8C20.6,27.5 19.6,27.1 18.4,26.6C17.2,26.1 16.5,25.8 16,25.6C15.1,26.4 14,27 12.6,27.5C11.2,28 9.6,28.2 7.9,28.2C7,28.2 6.2,28 5.5,27.7C4.1,27.1 3.4,26.2 3.4,25.3C3.4,24.4 3.7,23.5 4.3,22.8C5.5,21.5 7.1,20.9 9.1,20.9C10.6,20.9 12.1,21.2 13.8,21.8C14.4,22 15.2,22.4 16.1,22.8C16.6,21.5 17,20 17.3,18.3C17.6,16.6 17.9,15.2 18.2,14C18.5,12.9 18.8,11.8 19.1,10.9C19.4,10 19.8,9 20.3,8.1C20.8,7.2 21.3,6.4 21.9,5.8C23.2,4.4 24.9,3.7 27,3.7C28.6,3.7 29.9,4.2 30.9,5.1C31.9,6 32.4,7.3 32.4,9C32.4,10.3 32.1,11.5 31.6,12.6C31.1,13.8 30.4,14.8 29.6,15.7C28.8,16.6 28.1,17.4 27,18C25.9,18.6 24.8,19 23.6,19.2L23.4,18.3C24.7,18 26,17.3 27.1,16.3C28.2,15.3 29,14.1 29.6,12.7C30.1,11.3 30.4,9.9 30.4,8.5ZM4.4,25.1C4.4,26 4.9,26.6 6,26.9C8.2,27.5 10.5,27.3 12.7,26.3C13.5,25.9 14.2,25.4 14.6,24.9C12.4,23.4 10.4,22.7 8.6,22.7C5.9,22.5 4.4,23.4 4.4,25.1Z" style="fill:none;fill-rule:nonzero;stroke:rgb(0,128,255);stroke-width:2px;"/>
        <g transform="matrix(1,0,0,1,-0.0964982,-2.00095)">
            <path d="M1.973,36C1.976,36 34.218,36 34.22,36" style="fill:none;stroke:rgb(0,128,255);stroke-width:4px;stroke-linecap:square;stroke-linejoin:round;stroke-miterlimit:1.5;"/>
        </g>
    </g>
</svg>
